src/topics/icons/sectionio.svg

<svg height="290" preserveAspectRatio="xMidYMid" viewBox="0 0 256 290" width="256" xmlns="http://www.w3.org/2000/svg"><path d="m246.13 93.885c-6.003 0-10.87 4.867-10.87 10.87v110.78l-78.734 44.509v-44.176l16.568-9.404c3.166 1.827 6.836 2.878 10.754 2.878 11.898 0 21.544-9.645 21.544-21.544 0-11.898-9.646-21.544-21.544-21.544-11.828 0-21.426 9.533-21.539 21.334l-22.019 12.497c-3.402 1.93-5.504 5.541-5.504 9.453v69.137c0 3.866 2.053 7.441 5.392 9.39 1.692.986 3.584 1.48 5.478 1.48 1.844 0 3.689-.468 5.349-1.407l100.474-56.799c3.412-1.928 5.521-5.543 5.521-9.462v-117.122c0-6.003-4.867-10.87-10.87-10.87" fill="#5fc0c9"/><path d="m122.447 284.992c2.973-5.215 1.156-11.854-4.059-14.827l-95.625-53.993.334-92.027 40.727 23.465-.037 22.779c-3.156 1.845-5.887 4.512-7.828 7.916-5.893 10.336-2.292 23.493 8.045 29.387 10.336 5.893 23.493 2.292 29.387-8.045 5.858-10.275 2.331-23.334-7.864-29.278l.05-29.045c.008-3.912-2.087-7.527-5.486-9.465l-62.411-35.829c-3.358-1.914-7.481-1.902-10.827.034-1.695.981-3.062 2.38-4 4.025-.913 1.602-1.846 3.437-1.853 5.344v117c-.014 3.919 2.081 7.542 5.486 9.483l101.134 57.134c5.215 2.974 11.853 1.157 14.827-4.058" fill="#17a8dd"/><path d="m241.336 63.195-106.399-60.764c-3.339-1.907-7.437-1.908-10.776-.003l-106.693 60.863c-5.215 2.974-7.031 9.613-4.056 14.828 2.975 5.214 9.614 7.031 14.828 4.055l101.304-57.788 84.375 48.187-73.997 41.711c-3.141-1.763-6.762-2.772-10.62-2.772-12.007 0-21.74 9.733-21.74 21.74s9.733 21.74 21.74 21.74c12.006 0 21.74-9.733 21.74-21.74 0-.093-.006-.184-.007-.276l90.248-50.872c3.408-1.921 5.522-5.526 5.533-9.439.011-3.912-2.082-7.529-5.48-9.47" fill="#ec3e53"/></svg>

<?xml version="1.0" encoding="UTF-8" standalone="no"?>
<svg width="256px" height="290px" viewBox="0 0 256 290" version="1.1" xmlns="http://www.w3.org/2000/svg" xmlns:xlink="http://www.w3.org/1999/xlink" preserveAspectRatio="xMidYMid">
	<g>
		<path d="M246.13,93.885 C240.127,93.885 235.26,98.752 235.26,104.755 L235.26,215.535 L156.526,260.044 L156.526,215.868 L173.094,206.464 C176.26,208.291 179.93,209.342 183.848,209.342 C195.746,209.342 205.392,199.697 205.392,187.798 C205.392,175.9 195.746,166.254 183.848,166.254 C172.02,166.254 162.422,175.787 162.309,187.588 L140.29,200.085 C136.888,202.015 134.786,205.626 134.786,209.538 L134.786,278.675 C134.786,282.541 136.839,286.116 140.178,288.065 C141.87,289.051 143.762,289.545 145.656,289.545 C147.5,289.545 149.345,289.077 151.005,288.138 L251.479,231.339 C254.891,229.411 257,225.796 257,221.877 L257,104.755 C257,98.752 252.133,93.885 246.13,93.885" fill="#5FC0C9"></path>
		<path d="M122.447,284.992 C125.42,279.777 123.603,273.138 118.388,270.165 L22.763,216.172 L23.097,124.145 L63.824,147.61 L63.787,170.389 C60.631,172.234 57.9,174.901 55.959,178.305 C50.066,188.641 53.667,201.798 64.004,207.692 C74.34,213.585 87.497,209.984 93.391,199.647 C99.249,189.372 95.722,176.313 85.527,170.369 L85.577,141.324 C85.585,137.412 83.49,133.797 80.091,131.859 L17.68,96.03 C14.322,94.116 10.199,94.128 6.853,96.064 C5.158,97.045 3.791,98.444 2.853,100.089 C1.94,101.691 1.007,103.526 1,105.433 L1,222.433 C0.986,226.352 3.081,229.975 6.486,231.916 L107.62,289.05 C112.835,292.024 119.473,290.207 122.447,284.992" fill="#17A8DD"></path>
		<path d="M241.336,63.195 L134.937,2.431 C131.598,0.524 127.5,0.523 124.161,2.428 L17.468,63.291 C12.253,66.265 10.437,72.904 13.412,78.119 C16.387,83.333 23.026,85.15 28.24,82.174 L129.544,24.386 L213.919,72.573 L139.922,114.284 C136.781,112.521 133.16,111.512 129.302,111.512 C117.295,111.512 107.562,121.245 107.562,133.252 C107.562,145.259 117.295,154.992 129.302,154.992 C141.308,154.992 151.042,145.259 151.042,133.252 C151.042,133.159 151.036,133.068 151.035,132.976 L241.283,82.104 C244.691,80.183 246.805,76.578 246.816,72.665 C246.827,68.753 244.734,65.136 241.336,63.195" fill="#EC3E53"></path>
	</g>
</svg>
